X: 23845
T: Liverpool, The
R: reel
M: 4/4
K: Dmajor
FGAG FA3|EFGF EG3|F2 AG FA (3Bcd|cAGE ED D2|
FGAG FGAG|EA3 AcEG|FD (3EFG Ad (3Bcd|cAGE ED D2||
fede faaf|eA3 gfec|dcde f2 af|gaag fd d2|
fede faaf|eA3 Aceg|fddc d2 af|bgea fd d2||

